src/load.svg

<?xml version="1.0" encoding="UTF-8"?>
<!DOCTYPE svg  PUBLIC '-//W3C//DTD SVG 1.1//EN'  'http://www.w3.org/Graphics/SVG/1.1/DTD/svg11.dtd'>
<svg clip-rule="evenodd" fill-rule="evenodd" stroke-linejoin="round" stroke-miterlimit="2" version="1.1" viewBox="0 0 64 64" xml:space="preserve" xmlns="http://www.w3.org/2000/svg"><path d="m5 22h-2c-1.105 0-2 0.895-2 2v29.277c0 5.37 4.353 9.723 9.723 9.723h43.277c2.387 0 4.676-0.948 6.364-2.636s2.636-3.977 2.636-6.364v-42c0-1.105-0.895-2-2-2h-23.873l-5.405-8.109c-0.371-0.557-0.995-0.891-1.664-0.891h-23.058c-1.105 0-2 0.895-2 2v19zm4 0h38c1.105 0 2 0.895 2 2v30c0 1.326 0.527 2.598 1.464 3.536 0.938 0.937 2.21 1.464 3.536 1.464s2.598-0.527 3.536-1.464c0.937-0.938 1.464-2.21 1.464-3.536v-40h-22.943c-0.669 0-1.293-0.334-1.664-0.891l-5.406-8.109h-19.987v17zm47 34v-38c0-1.105-0.895-2-2-2h-42c-1.104 0-2 0.896-2 2s0.896 2 2 2h40v36c0 1.104 0.896 2 2 2s2-0.896 2-2z"/></svg>

<?xml version="1.0" ?><!DOCTYPE svg  PUBLIC '-//W3C//DTD SVG 1.1//EN'  'http://www.w3.org/Graphics/SVG/1.1/DTD/svg11.dtd'><svg xmlns="http://www.w3.org/2000/svg" xmlns:xlink="http://www.w3.org/1999/xlink" xmlns:serif="http://www.serif.com/" width="100%" height="100%" viewBox="0 0 64 64" version="1.1" xml:space="preserve" style="fill-rule:evenodd;clip-rule:evenodd;stroke-linejoin:round;stroke-miterlimit:2;"><g><path d="M5,22L3,22C1.895,22 1,22.895 1,24L1,53.277C1,58.647 5.353,63 10.723,63L54,63C56.387,63 58.676,62.052 60.364,60.364C62.052,58.676 63,56.387 63,54L63,12C63,10.895 62.105,10 61,10L37.127,10L31.722,1.891C31.351,1.334 30.727,1 30.058,1L7,1C5.895,1 5,1.895 5,3L5,22ZM9,22L47,22C48.105,22 49,22.895 49,24L49,54C49,55.326 49.527,56.598 50.464,57.536C51.402,58.473 52.674,59 54,59C55.326,59 56.598,58.473 57.536,57.536C58.473,56.598 59,55.326 59,54L59,14L36.057,14C35.388,14 34.764,13.666 34.393,13.109L28.987,5L9,5L9,22ZM56,56L56,18C56,16.895 55.105,16 54,16L12,16C10.896,16 10,16.896 10,18C10,19.104 10.896,20 12,20L52,20L52,56C52,57.104 52.896,58 54,58C55.104,58 56,57.104 56,56Z"/></g></svg>
